X: 1
T: Stairway to Heaven
Z:Giddily
M: 4/4
L: 1/8
Q:1/4=92
K:G

C2 B,A, B,3A,/2B,/2|CD2C B,/2A,3/2 CD|E2 DC B,A,2A,/2G,/2|G,A, A,3z A,B,|
C2 B,A, B,3A,/2B,/2|CD2C B,/2A,3/2 CD|E2 DC B,A,2A,/2G,/2|G,A,/2zA,4z3/2|
C2 CE D4|D3C/2B,C/2A, A,B,|CD ED DC B,G,|G,A, A,4 A,B,|
C2 B,A, B,3A,/2B,/2|C2 DC B,/2A,3/2 CD|E2 DC B,A,3/2G,/2z|G,A, A,4 A,B,|
C3D/2C/2 B,3A,/2B,/2|(3C2D2C2 B,/2A,3/2 CD|E2 DC (3B,2A,2G,2|G,A, A,3z3|


